Adwaita++-Light/panel/16/mic-volume-medium.svg

<svg height="16" width="16" xmlns="http://www.w3.org/2000/svg">
  <g fill="#444">
    <path d="m5 6v2.002c0 1.662 1.3379 2.998 3 2.998 1.662 0 3-1.336 3-2.998v-2.002z"/>
    <path d="m2 7v.999c0 2.966 2 6.001 5 6.001v2h2v-2c3 0 5-3.035 5-6.001v-.999h-2v.999c0 2.234-1.767 4.001-4 4.001-2.2334 0-4-1.767-4-4.001v-.999z"/>
    <path d="m8 0c-1.6621 0-3 1.3381-3 3v3h6v-3c0-1.6619-1.338-3-3-3z" opacity=".3"/>
  </g>
</svg>

<svg xmlns="http://www.w3.org/2000/svg" width="16" height="16" version="1.1">
 <defs>
  <style id="current-color-scheme" type="text/css">
   .ColorScheme-Text { color:#444444; } .ColorScheme-Highlight { color:#4285f4; }
  </style>
 </defs>
 <path style="fill:currentColor" class="ColorScheme-Text" d="M 5,6 V 8.002 C 5,9.664 6.3379,11 8,11 9.662,11 11,9.664 11,8.002 V 6 Z"/>
 <path style="fill:currentColor" class="ColorScheme-Text" d="M 2,7 V 7.999 C 2,10.965 4,14 7,14 V 16 H 9 V 14 C 12,14 14,10.965 14,7.999 V 7 H 12 V 7.999 C 12,10.233 10.233,12 8,12 5.7666,12 4,10.233 4,7.999 V 7 Z"/>
 <path style="opacity:0.3;fill:currentColor" class="ColorScheme-Text" d="M 8,0 C 6.3379,0 5,1.3381 5,3 V 6 H 11 V 3 C 11,1.3381 9.662,0 8,0 Z"/>
</svg>
